packages/icons/svg/24/NoImage.svg

<svg width="24" height="24" viewBox="0 0 24 24" fill="none" xmlns="http://www.w3.org/2000/svg">
<path fill-rule="evenodd" clip-rule="evenodd" d="M6 4.5C4.61929 4.5 3.5 5.61929 3.5 7V17C3.5 18.3807 4.61929 19.5 6 19.5H18C19.3807 19.5 20.5 18.3807 20.5 17V7C20.5 5.61929 19.3807 4.5 18 4.5H6ZM2.5 7C2.5 5.067 4.067 3.5 6 3.5H18C19.933 3.5 21.5 5.06701 21.5 7V17C21.5 18.933 19.933 20.5 18 20.5H6C4.067 20.5 2.5 18.933 2.5 17V7ZM13.5 9C13.5 7.61929 14.6193 6.5 16 6.5C17.3807 6.5 18.5 7.61929 18.5 9C18.5 10.3807 17.3807 11.5 16 11.5C14.6193 11.5 13.5 10.3807 13.5 9ZM16 7.5C15.1716 7.5 14.5 8.17157 14.5 9C14.5 9.82843 15.1716 10.5 16 10.5C16.8284 10.5 17.5 9.82843 17.5 9C17.5 8.17157 16.8284 7.5 16 7.5ZM9 10.941L15 13.941L19.5 11.691V17C19.5 17.8284 18.8284 18.5 18 18.5H6C5.17157 18.5 4.5 17.8284 4.5 17V13.191L9 10.941ZM5.5 13.809V17C5.5 17.2761 5.72386 17.5 6 17.5H18C18.2761 17.5 18.5 17.2761 18.5 17V13.309L15 15.059L9 12.059L5.5 13.809Z" fill="#858585"/>
</svg>

<svg width="24" height="24" fill="none" xmlns="http://www.w3.org/2000/svg" viewBox="0 0 24 24"><path fill-rule="evenodd" clip-rule="evenodd" d="M6 4.5A2.5 2.5 0 003.5 7v10A2.5 2.5 0 006 19.5h12a2.5 2.5 0 002.5-2.5V7A2.5 2.5 0 0018 4.5H6zM2.5 7A3.5 3.5 0 016 3.5h12A3.5 3.5 0 0121.5 7v10a3.5 3.5 0 01-3.5 3.5H6A3.5 3.5 0 012.5 17V7zm11 2a2.5 2.5 0 115 0 2.5 2.5 0 01-5 0zM16 7.5a1.5 1.5 0 100 3 1.5 1.5 0 000-3zm-7 3.441l6 3 4.5-2.25V17a1.5 1.5 0 01-1.5 1.5H6A1.5 1.5 0 014.5 17v-3.809l4.5-2.25zm-3.5 2.868V17a.5.5 0 00.5.5h12a.5.5 0 00.5-.5v-3.691l-3.5 1.75-6-3-3.5 1.75z" fill="currentColor"></path></svg>
